X: 6953
T: Cheticamp, The
R: jig
M: 6/8
K: Amajor
|:a2 b|c2 a e c2|A3 AEC|A,CE Aca|g3 g2 a|
f2 d B A2|G3 G3|1 GFE GFE|C3:|2 EFE EFG|A3||
|:C2 B,|A, C2 E2 A|c3 c2 e|cAe cAc|B3 BGF|
[1 E2 G B2 c|d3 f a2|gfe dcB|c3:|
[2 E2 G B c2|d3 f2 a|g2 f/e/ d2 c/B/|A3||

